!!!COM: Beethoven
!!!OTL: 9 Variationen uber "Quant' e piu bello" von G. Paisiello
!!!Variation: Variation 8 a
**function	**harm	**kern	**kern
*	*	*clefF4	*clefG2
*	*	*k[f#c#g#]	*k[f#c#g#]
*M2/4	*M2/4	*M2/4	*M2/4
*A:	*A:	*A:	*A:
8.T	I	r	16c#LL
.	.	r	16d
.	.	.	16eJJ
=193	=193	=193	=193
2T	I	r	16f#LL
.	.	.	16g#
.	.	.	16a
.	.	.	16bJJ
.	.	r	8cc#L
.	.	16AALL	.
.	.	16BB	8eJ 8cc#
.	.	16C#JJ	.
=194	=194	=194	=194
4T	V7	16DLL	(4d 4b
.	.	16E	.
.	.	16F#	.
.	.	16G#JJ	.
4T	I	8A	16c#LL) 16a
.	.	.	16e
.	.	r	16f#
.	.	.	16g#JJ
=195	=195	=195	=195
2T	I	r	16aLL
.	.	.	16b
.	.	.	16cc#
.	.	.	16ddJJ
.	.	r	8eeL
.	.	16AALL	.
.	.	16BB	8cc#J 8ee
.	.	16C#JJ	.
=196	=196	=196	=196
4T	V7	16DLL	(4b 4dd
.	.	16E	.
.	.	16F#	.
.	.	16G#JJ	.
4T	I	8A	16aLL) 16cc#
.	.	.	16e
.	.	r	16f#
.	.	.	16g#JJ
=197	=197	=197	=197
2T	Ib	r	16aLL
.	.	.	16b
.	.	.	16cc#
.	.	.	16ddJJ
*	*	*clefG2	*
.	.	8c# 8e 8a	16eeLL
.	.	.	16ee
.	.	r	16ff#
.	.	.	16gg#JJ
=198	=198	=198	=198
4T	I	r	16aaLL
.	.	.	16bb
.	.	.	16ccc#
.	.	.	16ddd#JJ
4T	Vc	r	8eeeL
.	.	16BLL	.
.	.	16c#	8eeeJ
.	.	16d#JJ	.
=199	=199	=199	=199
4.D	V	16eLL	4gg# 4bb
.	.	16f#	.
.	.	16g#	.
.	.	16aJJ	.
.	.	8bL	r
*	*	*clefF4	*
8D	V7/V	8BJ	8a 8dd#
=200	=200	=200	=200
4.D	V	8eL	4g# 4ee
.	.	8BJ	.
.	.	8E	r
.	.	.	16eLL
*-	*-	*-	*-
